src/assets/us-open.svg

<svg xmlns="http://www.w3.org/2000/svg" height="44.155" width="250" viewBox="0 0 250 44.15501">
<g transform="matrix(1.6152 0 0 1.6152 .88028 1.1197)">
  <path fill="#ffd400" d="m38.699 0c-9.4 0-21.6 3.5-31 7 12.9-2.5 28.902-3.1008 41.102-2.3008-1.9-2.3-4.802-4.6992-10.102-4.6992zm1.3262 6.0078c-14.136 0.2035-27.675 3.093-40.025 8.2932 18.6 1.1 32.5 2.6996 48.4 6.0996 1.9-2.2 3.0996-4.9996 3.0996-8.0996-0.1-2.2-0.59961-4.3-1.5996-6-3.3188-0.24375-6.6127-0.33992-9.875-0.29297zm-16.904 13.879c-3.0469 0.03281-6.0453 0.1375-8.8203 0.3125 18.3 2.6 19.5 4.4004 24 4.4004 3.5 0 6.4992-1.1004 8.6992-2.9004-5.175-1.35-14.738-1.9109-23.879-1.8125z"/>
  <path fill="#00288c" d="m133.6 4.9004c-5.4 0-9.1992 4.6992-9.6992 9.1992-0.4 3.8 1.4992 6.2012 5.6992 6.2012 1.6 0 3.2996-0.20039 5.0996-0.90039l1.1016-3.5c-1.2 0.5-3.1012 1.0996-4.7012 1.0996-1.3 0-2.1992-0.39922-2.6992-1.1992-0.3-0.4-0.30078-1.1-0.30078-1.5 5.8 0.1 9.6996-1.2 10.1-5 0.3-2.7-1.5996-4.4004-4.5996-4.4004zm-48.401 0.0996c-4.2 0-7.3988 2-7.7988 5-0.3 1.8 1.1004 3.1004 2.9004 3.9004 1.4 0.7 1.8988 1.2004 1.7988 1.9004-0.099 0.7-0.799 1.199-2.199 1.199-1.6 0-3.4-0.6-4.4-1.1l-1 3.5c1.1 0.5 2.4996 0.90039 4.5996 0.90039 4.3 0 7.6996-1.8012 8.0996-5.2012 0.3-2-1.3996-3.2-3.0996-4-1.3-0.6-1.8988-1.0992-1.7988-1.6992 0.1-0.8 0.99883-1.3008 2.2988-1.3008 1.4 0 2.7004 0.50078 3.4004 0.80078l1.001-3.3004c-0.8-0.3-1.901-0.5996-3.801-0.5996zm16.9 0c-4.2 0-8.5004 3.3996-9.9004 7.5996-1.3 4.2 0.8 7.7012 5 7.7012 4.7 0 8.8016-3.5012 10.102-7.7012 1.4-4.2004-0.9-7.6-5.2-7.6zm17.301 0c-1.7 0-3.6 0.99961-5 2.5996h-0.0996l0.59961-2.2988h-3.9004c-0.4 1.5-1.1 3.9992-1.6 5.6992l-4.5996 15v0.09961h4.2988l1.9004-6.2988h0.0996c0.5 0.3 1.5012 0.59961 2.7012 0.59961 5.1 0 9.0992-4.7008 9.6992-9.8008 0.3-3.0004-0.9-5.6-4.1-5.6zm30.799 0c-2 0-3.9 0.69961-5.5 2.5996h-0.0996l0.59961-2.2988h-3.8984c-0.3 1.3-0.7 2.8988-1.3 4.7992l-3 9.9v0.09961h4.3008s1.0996-3.4988 2.0996-6.7988c1.1-3.4 2.6992-5 4.1992-5 1.6 1e-7 1.5004 1.4 0.90039 3.5-0.5 1.8-2.5 8.199-2.5 8.199h4.4004l2.6-8.5c0.2-0.7 0.4-1.8 0.5-2.5 0.3-2.5-0.90078-4-3.3008-4zm-77.8 0.1992s-0.99961 3.4008-2.0996 6.8008-2.7012 5-4.2012 5c-1.6 0-1.5004-1.4-0.90039-3.5 0.5-1.8 2.5-8.1992 2.5-8.1992h-4.2988l-2.5996 8.5c-0.2 0.7-0.4 1.8-0.5 2.5-0.3 2.5 0.89883 4 3.2988 4 2 0 3.9-0.70156 5.5-2.6016h0.09961l-0.6 2.301h3.9c0.3-1.3 0.70078-2.9008 1.3008-4.8008l3-9.8984v-0.10156h-4.4004zm60.299 2.9004c1 0 1.5 0.50117 1.5 1.2012-0.2 1.3-1.8988 1.7988-5.2988 1.7988 0.4-1.3 1.7988-3 3.7988-3zm-31.6 0.099609c1.7 0 2.1 1.5008 2 2.8008-0.3 2.5-2.0004 6-4.4004 6-1.5 0-2.2-1.1004-2-2.9004 0.2-2.3 1.9004-5.9004 4.4004-5.9004zm16.4 0c1.4-1e-7 1.6996 1.2004 1.5996 2.4004-0.4 2.9-2.8 6.4-5.1 6.4-0.8 0-1.5004-0.19922-1.9004-0.69922l1-3.2012c0.8-2.8 2.8004-4.9004 4.4004-4.9004z"/>
 </g>
</svg>

<?xml version="1.0" encoding="UTF-8" standalone="no"?>
<!DOCTYPE svg PUBLIC "-//W3C//DTD SVG 1.1//EN" "http://www.w3.org/Graphics/SVG/1.1/DTD/svg11.dtd">
<svg width="100%" height="100%" viewBox="0 0 632 108" version="1.1" xmlns="http://www.w3.org/2000/svg" xmlns:xlink="http://www.w3.org/1999/xlink" xml:space="preserve" xmlns:serif="http://www.serif.com/" style="fill-rule:evenodd;clip-rule:evenodd;stroke-linejoin:round;stroke-miterlimit:2;">
    <g transform="matrix(1,0,0,1,-1423.33,-430.401)">
        <g transform="matrix(1,0,0,1,212.598,-1128.65)">
            <g transform="matrix(4.11466,0,0,4.11466,1210.73,1559.06)">
                <path d="M38.699,0C29.299,0 17.099,3.5 7.699,7C20.599,4.5 36.601,3.899 48.801,4.699C46.901,2.399 43.999,-0 38.699,-0ZM40.025,6.008C25.889,6.211 12.35,9.101 0,14.301C18.6,15.401 32.5,17.001 48.4,20.401C50.3,18.201 51.5,15.401 51.5,12.301C51.4,10.101 50.9,8.001 49.9,6.301C46.581,6.057 43.287,5.961 40.025,6.008L40.025,6.008ZM23.121,19.887C20.074,19.92 17.076,20.024 14.301,20.199C32.601,22.799 33.801,24.6 38.301,24.6C41.801,24.6 44.8,23.499 47,21.699C41.825,20.349 32.262,19.788 23.121,19.887L23.121,19.887Z" style="fill:rgb(255,212,0);fill-rule:nonzero;"/>
            </g>
            <g transform="matrix(4.11466,0,0,4.11466,1210.73,1559.06)">
                <path d="M133.6,4.9C128.2,4.9 124.401,9.6 123.901,14.1C123.501,17.9 125.4,20.301 129.6,20.301C131.2,20.301 132.9,20.1 134.7,19.4L135.801,15.9C134.601,16.4 132.7,17 131.1,17C129.8,17 128.901,16.601 128.401,15.801C128.101,15.401 128.1,14.701 128.1,14.301C133.9,14.401 137.8,13.101 138.2,9.301C138.5,6.601 136.6,4.9 133.6,4.9L133.6,4.9ZM85.199,5C80.999,5 77.8,7 77.4,10C77.1,11.8 78.501,13.1 80.301,13.9C81.701,14.6 82.199,15.101 82.099,15.801C82,16.501 81.3,17 79.9,17C78.3,17 76.5,16.4 75.5,15.9L74.5,19.4C75.6,19.9 77,20.3 79.1,20.3C83.4,20.3 86.8,18.499 87.2,15.099C87.5,13.099 85.8,11.899 84.1,11.099C82.8,10.499 82.201,10 82.301,9.4C82.401,8.6 83.3,8.099 84.6,8.099C86,8.099 87.3,8.6 88,8.9L89.001,5.599C88.201,5.299 87.1,5 85.2,5L85.199,5ZM102.099,5C97.899,5 93.599,8.4 92.199,12.6C90.899,16.8 92.999,20.301 97.199,20.301C101.899,20.301 106,16.8 107.301,12.6C108.701,8.399 106.401,5 102.101,5L102.099,5ZM119.4,5C117.7,5 115.8,6 114.4,7.6L114.3,7.6L114.9,5.301L111,5.301C110.6,6.801 109.9,9.3 109.4,11L104.8,26L104.8,26.1L109.099,26.1L110.999,19.801L111.099,19.801C111.599,20.101 112.6,20.4 113.8,20.4C118.9,20.4 122.899,15.7 123.499,10.6C123.799,7.599 122.599,5 119.399,5L119.4,5ZM150.199,5C148.199,5 146.299,5.7 144.699,7.6L144.599,7.6L145.199,5.301L141.301,5.301C141.001,6.601 140.601,8.2 140.001,10.1L137.001,20L137.001,20.1L141.301,20.1C141.301,20.1 142.401,16.601 143.401,13.301C144.501,9.901 146.1,8.301 147.6,8.301C149.2,8.301 149.101,9.701 148.501,11.801C148.001,13.601 146.001,20 146.001,20L150.401,20L153.001,11.5C153.201,10.8 153.401,9.7 153.501,9C153.801,6.5 152.6,5 150.2,5L150.199,5ZM72.399,5.199C72.399,5.199 71.399,8.6 70.299,12C69.199,15.4 67.598,17 66.098,17C64.498,17 64.598,15.6 65.198,13.5C65.698,11.7 67.698,5.301 67.698,5.301L63.399,5.301L60.799,13.801C60.599,14.501 60.399,15.601 60.299,16.301C59.999,18.801 61.198,20.301 63.598,20.301C65.598,20.301 67.498,19.599 69.098,17.699L69.198,17.699L68.598,20L72.498,20C72.798,18.7 73.199,17.099 73.799,15.199L76.799,5.301L76.799,5.199L72.398,5.199L72.399,5.199ZM132.698,8.1C133.698,8.1 134.198,8.601 134.198,9.301C133.998,10.601 132.299,11.1 128.899,11.1C129.299,9.8 130.698,8.1 132.698,8.1ZM101.098,8.199C102.798,8.199 103.198,9.7 103.098,11C102.798,13.5 101.098,17 98.698,17C97.198,17 96.498,15.9 96.698,14.1C96.898,11.8 98.598,8.199 101.098,8.199ZM117.498,8.199C118.898,8.199 119.198,9.4 119.098,10.6C118.698,13.5 116.298,17 113.998,17C113.198,17 112.497,16.8 112.097,16.3L113.097,13.099C113.897,10.299 115.898,8.199 117.498,8.199L117.498,8.199Z" style="fill-rule:nonzero;"/>
            </g>
        </g>
    </g>
</svg>
